X:1
T:Rogers, CM
T:Rogers, CM
T:William T. Rogers, before 1872
T:Public Domain Courtesy of the Cyber Hymnal™
C:William T. Rogers, before 1872
Z:Public Domain
Z:Courtesy of the Cyber Hymnal™
%%score ( 1 2 ) ( 3 4 )
L:1/8
Q:1/4=100
M:4/4
K:Ab
V:1 treble 
V:2 treble 
V:3 bass 
V:4 bass 
V:1
 [CE]2 | [CA]3 [DB] [Ec][CA][DF][CE] | [CA]6 [Ec]2 | [EB]3 [Ec] [Ed]2 (FG) | [CA]6 [Ec]2 | %5
 [EB]3 [Ec] (dB) (GE) | [EA]2 [EB]2 [Ec]2 [Af]2 | [Ae]3 E G c2 [DB] | [CA]6 |] %9
V:2
 x2 | x8 | x8 | x6 D2 | x8 | x4 E2 E2 | x8 | x3 E E2 x2 | x6 |] %9
V:3
 [A,,A,]2 | [A,,A,]3 [A,,A,] [A,,A,][A,,A,][A,,A,][A,,A,] | [A,,A,]6 [A,,A,]2 | %3
 [E,G,]3 [E,A,] [E,B,]2 [E,B,]2 | [A,,A,]6 [A,,A,]2 | [E,G,]3 [E,A,] [E,B,]2 B,2 | %6
 [C,A,]2 [B,,G,]2 [A,,A,]2 (A,D) | [E,C]3 [E,A,] [E,B,]3 [E,G,] | [A,,A,]6 |] %9
V:4
 x2 | x8 | x8 | x8 | x8 | x6 (E,D,) | x6 D,2 | x8 | x6 |] %9

